docs/img/filter/options.svg

<svg width="24" height="24" viewBox="0 0 24 24" fill="none" xmlns="http://www.w3.org/2000/svg">
<g id="24 / basic / options">
<path id="icon" fill-rule="evenodd" clip-rule="evenodd" d="M13 11C11.1362 11 9.57006 9.72523 9.12602 8H2V6H9.12602C9.57006 4.27477 11.1362 3 13 3C15.2091 3 17 4.79086 17 7C17 9.20914 15.2091 11 13 11ZM19 6H22V8H19V6ZM8 21C6.13616 21 4.57006 19.7252 4.12602 18H2V16H4.12602C4.57006 14.2748 6.13616 13 8 13C10.2091 13 12 14.7909 12 17C12 19.2091 10.2091 21 8 21ZM14 18H22V16H14V18ZM10 17C10 18.1046 9.10457 19 8 19C6.89543 19 6 18.1046 6 17C6 15.8954 6.89543 15 8 15C9.10457 15 10 15.8954 10 17ZM15 7C15 8.10457 14.1046 9 13 9C11.8954 9 11 8.10457 11 7C11 5.89543 11.8954 5 13 5C14.1046 5 15 5.89543 15 7Z" fill="white"/>
</g>
</svg>

<svg width="24" height="24" fill="none" xmlns="http://www.w3.org/2000/svg"><path fill-rule="evenodd" clip-rule="evenodd" d="M13 11a4.002 4.002 0 0 1-3.874-3H2V6h7.126A4.002 4.002 0 0 1 17 7a4 4 0 0 1-4 4zm6-5h3v2h-3V6zM8 21a4.002 4.002 0 0 1-3.874-3H2v-2h2.126A4.002 4.002 0 0 1 12 17a4 4 0 0 1-4 4zm6-3h8v-2h-8v2zm-4-1a2 2 0 1 1-4 0 2 2 0 0 1 4 0zm5-10a2 2 0 1 1-4 0 2 2 0 0 1 4 0z" fill="#fff"/></svg>
